public/Vps.svg

<svg xmlns="http://www.w3.org/2000/svg" width="241" height="290" fill="none" viewBox="0 0 241 290"><g clip-path="url(#a)"><mask id="b" width="241" height="290" x="0" y="0" maskUnits="userSpaceOnUse" style="mask-type:luminance"><path fill="#fff" d="M241 0H0v290h241z"/></mask><g mask="url(#b)"><path fill="url(#c)" d="M240.359 154.373h-50.23l-55.913-33.866c-7.2-4.361-19.779-3.815-28.095 1.226l-53.9 32.641H2.02v174.035h.017c-.207 2.95 1.365 5.8 4.823 7.894l101.279 61.348c7.2 4.36 19.78 3.815 28.1-1.226l97.242-58.9c4.317-2.614 6.618-5.926 6.842-9.118h.037z"/><path fill="#d9dde8" d="m237.063 190.553-107.734 62.878a14.54 14.54 0 0 1-14.905 0L5.038 189.613a6.55 6.55 0 0 1-3.02-5.7v-33.038l111.32-47.158a16.95 16.95 0 0 1 13.809-.163l112.917 48.255v33.042a6.565 6.565 0 0 1-3.005 5.7z"/><path fill="#f2f5fc" d="m239.169 153.616-109.836 64.116a14.48 14.48 0 0 1-14.839 0l-111-64.776a2.71 2.71 0 0 1-.96-3.354c.19-.467.528-.86.96-1.12l109.865-64.13a14.44 14.44 0 0 1 14.787 0l111.025 64.791a2.7 2.7 0 0 1 .962 3.352c-.191.467-.529.86-.962 1.121z"/><path fill="#333c5e" d="m212.062 155.291-79.144 46.2a17.42 17.42 0 0 1-17.85 0l-85.019-49.617a3.15 3.15 0 0 1-1.124-3.9 2.74 2.74 0 0 1 1.124-1.311l80.513-47a14.74 14.74 0 0 1 15.1 0l86.4 50.42a3.15 3.15 0 0 1 1.12 3.906 2.74 2.74 0 0 1-1.12 1.307z"/><path fill="#e0e3ed" d="m212.131 155.382-8.147 4.629-78.317-45.705a14.75 14.75 0 0 0-15.1 0L38.012 156.68l-7.966-4.8a3.15 3.15 0 0 1-1.124-3.9c.193-.539.56-.999 1.044-1.306l80.608-47.308a14.9 14.9 0 0 1 15.187.093l86.459 50.628a3.23 3.23 0 0 1 1.084 3.965 2.9 2.9 0 0 1-1.173 1.334z"/><path fill="url(#d)" d="M223.148 181.377c0 2.589 1.8 3.635 4.015 2.341a8.97 8.97 0 0 0 4.014-7.025c0-2.589-1.8-3.635-4.014-2.341a8.97 8.97 0 0 0-4.015 7.025"/><path fill="#a0a6ba" d="M226.132 182.514a8.95 8.95 0 0 0 4.016-7.025c.006-.5-.083-.998-.262-1.466a2.79 2.79 0 0 1 1.294 2.67 8.96 8.96 0 0 1-4.013 7.025c-1.729 1.01-3.186.583-3.753-.873a2.83 2.83 0 0 0 2.718-.331"/><path fill="url(#e)" d="M209.699 189.016c0 2.588 1.8 3.637 4.014 2.344a8.97 8.97 0 0 0 4.014-7.025c0-2.589-1.8-3.637-4.014-2.344a8.97 8.97 0 0 0-4.014 7.025"/><path fill="#a0a6ba" d="M212.684 190.161a8.97 8.97 0 0 0 4.014-7.031 4 4 0 0 0-.26-1.466 2.79 2.79 0 0 1 1.29 2.675 8.97 8.97 0 0 1-4.013 7.025c-1.728 1-3.188.579-3.754-.878a2.85 2.85 0 0 0 2.723-.325"/><path fill="url(#f)" d="M171.609 163.42c0-12.315-8.353-27.267-18.725-33.645-3.921-15.5-14.506-31.235-26.985-38.644-5.866-3.484-11.3-4.6-15.833-3.71V87.4l-8.98 1.808s-5.663 7.339-6.364 9.278c-1.97-1.5-4.825-3.138-6.8-2.835l-9.629 1.6s6.241 40.269 16.774 46.524c4.484 2.661 61.466 35.388 61.466 35.388l6.453-1.993-.022-.01c5.199-.939 8.645-5.839 8.645-13.739"/><path fill="#f2f5fc" d="M145.792 131.811c-4.141-15.5-15.322-31.265-28.5-38.7s-24.363-4.284-28.5 6.549c-10.957-5.958-19.78-.941-19.78 11.374 0 12.455 9.02 27.636 20.148 33.911l56.276 31.737c11.126 6.275 20.147 1.265 20.147-11.188-.009-12.314-8.832-27.282-19.791-33.683"/><path fill="#333c5e" d="m110.73 119.807-6.772 17.168-3.575-2.272-6.75-25.765 3.91 2.485 4.762 18.367 4.827-12.27zm8.067 5.13a14.5 14.5 0 0 1 3.608 3.245 14.8 14.8 0 0 1 2.358 4.199 13.5 13.5 0 0 1 .825 4.667 6.54 6.54 0 0 1-.827 3.6 2.59 2.59 0 0 1-2.358 1.201 7.45 7.45 0 0 1-3.608-1.359l-3.15-2v5.921l-3.622-2.3v-21.474zm-.2 11.375a2.73 2.73 0 0 0 2.48.61 2.3 2.3 0 0 0 .851-2.199 6.6 6.6 0 0 0-.851-3.317 7.1 7.1 0 0 0-2.479-2.543l-2.949-1.877v7.454zm14.928 19.829a19.8 19.8 0 0 1-3.586-2.969 19.3 19.3 0 0 1-2.782-3.563l1.229-2.962a19.6 19.6 0 0 0 2.391 3.146c.818.907 1.75 1.705 2.771 2.375a3.66 3.66 0 0 0 2.279.821c.452-.04.736-.501.738-1.201a3.2 3.2 0 0 0-.437-1.55 8 8 0 0 0-1.117-1.524 41 41 0 0 0-1.843-1.847 48 48 0 0 1-2.927-3.023 12.6 12.6 0 0 1-1.955-3.115 9.4 9.4 0 0 1-.816-3.953 5 5 0 0 1 .738-2.922 2.41 2.41 0 0 1 2.224-.995 7.8 7.8 0 0 1 3.631 1.417 18 18 0 0 1 2.927 2.353 19 19 0 0 1 2.5 3l-1.116 3.063a16.4 16.4 0 0 0-4.336-4.443 3.26 3.26 0 0 0-2.245-.754c-.455.086-.731.588-.728 1.317a3.5 3.5 0 0 0 .838 2.174 25.6 25.6 0 0 0 2.559 2.688 48 48 0 0 1 2.928 3.026 12.8 12.8 0 0 1 1.955 3.085 9.2 9.2 0 0 1 .816 3.923 4.87 4.87 0 0 1-.748 2.882 2.44 2.44 0 0 1-2.245.98 7.9 7.9 0 0 1-3.638-1.429z"/></g></g><defs><linearGradient id="c" x1="137.159" x2="150.597" y1="435.973" y2="101.303" gradientUnits="userSpaceOnUse"><stop stop-color="#fff"/><stop offset="1" stop-color="#c8cede"/></linearGradient><linearGradient id="d" x1="-514.534" x2="-513.923" y1="433.511" y2="433.511" gradientUnits="userSpaceOnUse"><stop stop-color="#ffe06a"/><stop offset="1" stop-color="#fc0"/></linearGradient><linearGradient id="e" x1="-514.494" x2="-513.876" y1="433.448" y2="433.448" gradientUnits="userSpaceOnUse"><stop stop-color="#5e98f7"/><stop offset="1" stop-color="#4670ba"/></linearGradient><linearGradient id="f" x1="-805.223" x2="-805.223" y1="442.652" y2="442.652" gradientUnits="userSpaceOnUse"><stop stop-color="#5e98f7"/><stop offset="1" stop-color="#4670ba"/></linearGradient><clipPath id="a"><path fill="#fff" d="M0 0h241v290H0z"/></clipPath></defs></svg>

<svg width="241" height="290" viewBox="0 0 241 290" fill="none" xmlns="http://www.w3.org/2000/svg">
<g clip-path="url(#clip0_9_80840)">
<mask id="mask0_9_80840" style="mask-type:luminance" maskUnits="userSpaceOnUse" x="0" y="0" width="241" height="290">
<path d="M241 0H0V290H241V0Z" fill="white"/>
</mask>
<g mask="url(#mask0_9_80840)">
<path d="M240.359 154.373H190.129L134.216 120.507C127.016 116.146 114.437 116.692 106.121 121.733L52.2206 154.374H2.02061V328.409H2.03757C1.83057 331.359 3.40257 334.209 6.86057 336.303L108.14 397.651C115.34 402.011 127.92 401.466 136.24 396.425L233.482 337.525C237.799 334.911 240.1 331.599 240.324 328.407H240.361L240.359 154.373Z" fill="url(#paint0_linear_9_80840)"/>
<path d="M237.063 190.553L129.329 253.431C127.076 254.776 124.501 255.486 121.877 255.486C119.253 255.486 116.677 254.776 114.424 253.431L5.03821 189.613C4.0855 189.004 3.30658 188.16 2.77734 187.161C2.2481 186.162 1.98656 185.043 2.01819 183.913V150.875L113.338 103.717C115.5 102.722 117.846 102.193 120.225 102.165C122.605 102.137 124.963 102.61 127.147 103.554L240.064 151.809V184.851C240.096 185.979 239.836 187.096 239.309 188.095C238.783 189.093 238.008 189.939 237.059 190.551L237.063 190.553Z" fill="#D9DDE8"/>
<path d="M239.169 153.616L129.333 217.732C127.089 219.071 124.525 219.778 121.913 219.778C119.301 219.778 116.737 219.071 114.494 217.732L3.49352 152.956C2.96388 152.6 2.57706 152.068 2.40141 151.455C2.22577 150.841 2.27256 150.185 2.53349 149.602C2.72493 149.135 3.06153 148.742 3.49352 148.482L113.359 84.3525C115.595 83.0199 118.15 82.3164 120.753 82.3164C123.356 82.3164 125.91 83.0199 128.146 84.3525L239.171 149.143C239.702 149.498 240.09 150.029 240.266 150.643C240.442 151.256 240.395 151.912 240.133 152.495C239.942 152.962 239.604 153.355 239.171 153.616H239.169Z" fill="#F2F5FC"/>
<path d="M212.062 155.291L132.918 201.491C130.22 203.101 127.136 203.951 123.993 203.951C120.851 203.951 117.767 203.101 115.068 201.491L30.0494 151.874C29.4324 151.461 28.9812 150.842 28.7755 150.129C28.5699 149.415 28.623 148.652 28.9254 147.974C29.1488 147.427 29.5431 146.967 30.0494 146.663L110.562 99.6628C112.845 98.301 115.454 97.582 118.112 97.582C120.771 97.582 123.379 98.301 125.662 99.6628L212.062 150.083C212.68 150.497 213.13 151.117 213.335 151.831C213.54 152.546 213.486 153.31 213.182 153.989C212.959 154.533 212.566 154.992 212.062 155.296V155.291Z" fill="#333C5E"/>
<path d="M212.131 155.382L203.984 160.011L125.667 114.306C123.383 112.945 120.775 112.227 118.117 112.227C115.459 112.227 112.85 112.945 110.567 114.306L38.0118 156.68L30.0458 151.88C29.4286 151.467 28.9773 150.849 28.7716 150.135C28.5659 149.422 28.6191 148.658 28.9217 147.98C29.115 147.441 29.4823 146.981 29.9657 146.674L110.574 99.366C112.881 98.0184 115.508 97.3159 118.18 97.3323C120.852 97.3487 123.47 98.0832 125.761 99.459L212.22 150.087C212.834 150.519 213.278 151.151 213.476 151.874C213.673 152.598 213.613 153.368 213.304 154.052C213.062 154.608 212.652 155.075 212.131 155.386V155.382Z" fill="#E0E3ED"/>
<path d="M223.148 181.377C223.148 183.966 224.948 185.012 227.163 183.718C228.336 182.943 229.311 181.904 230.008 180.684C230.705 179.463 231.106 178.096 231.177 176.693C231.177 174.104 229.377 173.058 227.163 174.352C225.991 175.126 225.016 176.166 224.319 177.386C223.622 178.606 223.221 179.973 223.148 181.377Z" fill="url(#paint1_linear_9_80840)"/>
<path d="M226.132 182.514C227.306 181.741 228.281 180.702 228.978 179.481C229.676 178.261 230.077 176.893 230.148 175.489C230.154 174.989 230.065 174.491 229.886 174.023C230.331 174.301 230.689 174.699 230.918 175.172C231.147 175.644 231.238 176.172 231.18 176.693C231.109 178.097 230.708 179.464 230.011 180.684C229.314 181.905 228.34 182.944 227.167 183.718C225.438 184.728 223.981 184.301 223.414 182.845C223.858 183.025 224.34 183.088 224.816 183.031C225.291 182.973 225.744 182.795 226.132 182.514Z" fill="#A0A6BA"/>
<path d="M209.699 189.016C209.699 191.604 211.499 192.653 213.713 191.36C214.886 190.585 215.86 189.546 216.557 188.326C217.254 187.106 217.655 185.739 217.727 184.335C217.727 181.746 215.927 180.698 213.713 181.991C212.54 182.766 211.566 183.805 210.869 185.025C210.171 186.246 209.771 187.613 209.699 189.016Z" fill="url(#paint2_linear_9_80840)"/>
<path d="M212.684 190.161C213.857 189.386 214.832 188.345 215.529 187.124C216.226 185.903 216.626 184.535 216.698 183.13C216.703 182.629 216.615 182.132 216.438 181.664C216.883 181.943 217.241 182.342 217.469 182.815C217.697 183.289 217.787 183.817 217.728 184.339C217.656 185.742 217.255 187.109 216.558 188.329C215.861 189.55 214.887 190.589 213.715 191.364C211.987 192.364 210.527 191.943 209.961 190.486C210.406 190.665 210.888 190.729 211.364 190.672C211.84 190.616 212.294 190.44 212.684 190.161Z" fill="#A0A6BA"/>
<path d="M171.609 163.42C171.609 151.105 163.256 136.153 152.884 129.775C148.963 114.275 138.378 98.5398 125.899 91.1308C120.033 87.6468 114.599 86.5307 110.066 87.4217V87.3988L101.086 89.2067C101.086 89.2067 95.423 96.5458 94.722 98.4848C92.752 96.9848 89.897 95.3467 87.922 95.6497L78.293 97.2497C78.293 97.2497 84.534 137.519 95.067 143.774C99.551 146.435 156.533 179.162 156.533 179.162L162.986 177.169L162.964 177.159C168.163 176.22 171.609 171.32 171.609 163.42Z" fill="url(#paint3_linear_9_80840)"/>
<path d="M145.792 131.811C141.651 116.311 130.47 100.546 117.292 93.1109C104.114 85.6759 92.9287 88.8269 88.7917 99.6599C77.8347 93.7019 69.0117 98.7189 69.0117 111.034C69.0117 123.489 78.0318 138.67 89.1598 144.945L145.436 176.682C156.562 182.957 165.583 177.947 165.583 165.494C165.574 153.18 156.751 138.212 145.792 131.811Z" fill="#F2F5FC"/>
<path d="M110.73 119.807L103.958 136.975L100.383 134.703L93.6328 108.938L97.5439 111.423L102.305 129.79L107.132 117.52L110.73 119.807ZM118.797 124.937C120.174 125.807 121.393 126.905 122.405 128.182C123.414 129.444 124.211 130.862 124.763 132.381C125.311 133.876 125.59 135.456 125.588 137.048C125.664 138.303 125.377 139.553 124.761 140.648C124.512 141.042 124.162 141.362 123.747 141.573C123.332 141.785 122.868 141.88 122.403 141.849C121.102 141.72 119.858 141.252 118.795 140.49L115.645 138.49V144.411L112.023 142.111V120.637L118.797 124.937ZM118.597 136.312C118.93 136.608 119.329 136.818 119.761 136.924C120.194 137.03 120.645 137.03 121.077 136.922C121.404 136.667 121.656 136.327 121.806 135.94C121.956 135.553 121.998 135.132 121.928 134.723C121.94 133.561 121.647 132.417 121.077 131.406C120.479 130.362 119.626 129.487 118.598 128.863L115.649 126.986V134.44L118.597 136.312ZM133.525 156.141C132.217 155.296 131.013 154.299 129.939 153.172C128.875 152.097 127.942 150.901 127.157 149.609L128.386 146.647C129.075 147.774 129.876 148.828 130.777 149.793C131.595 150.7 132.527 151.498 133.548 152.168C134.192 152.693 134.996 152.982 135.827 152.989C136.279 152.949 136.563 152.488 136.565 151.788C136.555 151.243 136.404 150.708 136.128 150.238C135.817 149.687 135.442 149.176 135.011 148.714C134.557 148.22 133.943 147.605 133.168 146.867C132.175 145.93 131.199 144.922 130.241 143.844C129.44 142.907 128.782 141.858 128.286 140.729C127.732 139.486 127.454 138.137 127.47 136.776C127.41 135.749 127.668 134.729 128.208 133.854C128.457 133.506 128.795 133.23 129.185 133.056C129.576 132.881 130.006 132.813 130.432 132.859C131.743 133.017 132.992 133.505 134.063 134.276C135.118 134.956 136.099 135.745 136.99 136.629C137.924 137.54 138.762 138.545 139.49 139.629L138.374 142.692C137.224 140.948 135.753 139.44 134.038 138.249C133.41 137.725 132.609 137.456 131.793 137.495C131.338 137.581 131.062 138.083 131.065 138.812C131.089 139.611 131.384 140.378 131.903 140.986C132.69 141.943 133.545 142.841 134.462 143.674C135.455 144.612 136.431 145.621 137.39 146.7C138.186 147.629 138.844 148.668 139.345 149.785C139.901 151.017 140.18 152.357 140.161 153.708C140.219 154.724 139.957 155.732 139.413 156.59C139.158 156.937 138.816 157.21 138.422 157.382C138.028 157.554 137.595 157.619 137.168 157.57C135.854 157.406 134.604 156.914 133.53 156.141L133.525 156.141Z" fill="#333C5E"/>
</g>
</g>
<defs>
<linearGradient id="paint0_linear_9_80840" x1="137.159" y1="435.973" x2="150.597" y2="101.303" gradientUnits="userSpaceOnUse">
<stop stop-color="white"/>
<stop offset="1" stop-color="#C8CEDE"/>
</linearGradient>
<linearGradient id="paint1_linear_9_80840" x1="-514.534" y1="433.511" x2="-513.923" y2="433.511" gradientUnits="userSpaceOnUse">
<stop stop-color="#FFE06A"/>
<stop offset="1" stop-color="#FFCC00"/>
</linearGradient>
<linearGradient id="paint2_linear_9_80840" x1="-514.494" y1="433.448" x2="-513.876" y2="433.448" gradientUnits="userSpaceOnUse">
<stop stop-color="#5E98F7"/>
<stop offset="1" stop-color="#4670BA"/>
</linearGradient>
<linearGradient id="paint3_linear_9_80840" x1="-805.223" y1="442.652" x2="-805.223" y2="442.652" gradientUnits="userSpaceOnUse">
<stop stop-color="#5E98F7"/>
<stop offset="1" stop-color="#4670BA"/>
</linearGradient>
<clipPath id="clip0_9_80840">
<rect width="241" height="290" fill="white"/>
</clipPath>
</defs>
</svg>
